src/assets/filled/PenTool.svg

<svg width="24" height="24" viewBox="0 0 24 24"  xmlns="http://www.w3.org/2000/svg">
<path d="M20.5501 9.44004H19.4501C19.3001 9.44004 19.1501 9.47004 19.0101 9.51004L14.0201 4.52004C14.5001 3.90004 14.4601 3.01004 13.8901 2.45004L13.1101 1.67004C12.5201 1.08004 11.4801 1.08004 10.8801 1.67004L10.1001 2.45004C9.54012 3.01004 9.50012 3.90004 9.98012 4.52004L4.99012 9.51004C4.85012 9.47004 4.70012 9.44004 4.55012 9.44004H3.45012C2.58012 9.44004 1.87012 10.15 1.87012 11.02V12.12C1.87012 12.99 2.58012 13.7 3.45012 13.7H4.55012C5.42012 13.7 6.13012 12.99 6.13012 12.12V11.02C6.13012 10.87 6.10012 10.72 6.06012 10.58L11.0501 5.59004C11.3201 5.80004 11.6601 5.91004 12.0001 5.91004C12.3401 5.91004 12.6801 5.79004 12.9601 5.58004L17.9501 10.57C17.9101 10.71 17.8801 10.86 17.8801 11.01V12.11C17.8801 12.98 18.5901 13.69 19.4601 13.69H20.5601C21.4301 13.69 22.1401 12.98 22.1401 12.11V11.01C22.1201 10.14 21.4201 9.44004 20.5501 9.44004Z" />
<path d="M15.75 16.5502L14.11 18.0002H9.85005L8.21005 16.5502C7.26005 15.7702 7.26005 15.1702 7.98005 14.2502L10.87 10.5902C11.07 10.3402 11.3001 10.1702 11.5601 10.0802C11.83 9.9902 12.12 9.9902 12.4 10.0802C12.65 10.1702 12.88 10.3402 13.09 10.5902L15.98 14.2502C16.7 15.1602 16.67 15.7302 15.75 16.5502Z" />
<path d="M13.2899 21.9998H10.6999C9.77989 21.9998 9.08989 21.2498 9.26989 20.4498L9.57989 19.0598C9.63989 18.7798 9.88989 18.5898 10.1699 18.5898H13.8199C14.0999 18.5898 14.3399 18.7798 14.4099 19.0598L14.7199 20.4498C14.9199 21.2998 14.2699 21.9998 13.2899 21.9998Z" />
</svg>

<?xml version="1.0" encoding="UTF-8"?>
<svg width="24" height="24" viewBox="0 0 24 24" xmlns="http://www.w3.org/2000/svg">
 <path d="m20.55 9.44h-1.1c-0.15 0-0.3 0.03-0.44 0.07l-4.99-4.99c0.48-0.62 0.44-1.51-0.13-2.07l-0.78-0.78c-0.59-0.59-1.63-0.59-2.23 0l-0.78 0.78c-0.55998 0.56-0.59998 1.45-0.11998 2.07l-4.99 4.99c-0.14-0.04-0.29-0.07-0.44-0.07h-1.1c-0.87 0-1.58 0.70996-1.58 1.58v1.1c0 0.87 0.71 1.58 1.58 1.58h1.1c0.87 0 1.58-0.71 1.58-1.58v-1.1c0-0.15-0.03-0.3-0.07-0.44l4.99-4.99c0.27 0.21 0.61 0.32 0.95 0.32s0.68-0.12 0.96-0.33l4.99 4.99c-0.04 0.14-0.07 0.29-0.07 0.44v1.1c0 0.87 0.71 1.58 1.58 1.58h1.1c0.87 0 1.58-0.71 1.58-1.58v-1.1c-0.02-0.87-0.72-1.57-1.59-1.57z"/>
 <path d="m15.75 16.55-1.64 1.45h-4.26l-1.64-1.45c-0.95-0.78-0.95-1.38-0.23-2.3l2.89-3.66c0.2-0.25 0.4301-0.42 0.6901-0.51 0.2699-0.09 0.5599-0.09 0.8399 0 0.25 0.09 0.48 0.26 0.69 0.51l2.89 3.66c0.72 0.91 0.69 1.48-0.23 2.3z"/>
 <path d="m13.29 22h-2.59c-0.92001 0-1.61-0.75-1.43-1.55l0.31-1.39c0.06-0.28 0.31-0.47 0.59001-0.47h3.65c0.28 0 0.52 0.19 0.59 0.47l0.31 1.39c0.2 0.85-0.45 1.55-1.43 1.55z"/>
</svg>
